public/img/old-svg/employees.svg

<svg width="103" height="104" viewBox="0 0 103 104" fill="none" xmlns="http://www.w3.org/2000/svg">
<g opacity="0.5" clip-path="url(#clip0)">
<path d="M63.3787 73.4678H57.7324C56.8992 73.4678 56.2236 74.1499 56.2236 74.9912C56.2236 75.8328 56.8992 76.5147 57.7324 76.5147H63.3787C64.212 76.5147 64.8875 75.8328 64.8875 74.9912C64.8875 74.1499 64.212 73.4678 63.3787 73.4678Z" fill="white"/>
<path d="M96.6123 57.1582L88.3963 53.9583L84.2072 49.7286C83.9383 49.457 83.5917 49.31 83.2376 49.287V45.9214C85.2119 43.7959 86.6173 41.1043 87.1844 38.0721C87.5364 38.0881 87.8919 38.0595 88.2426 37.9871C90.2501 37.5722 91.7072 35.6914 91.7072 33.5155V32.4046C91.7072 31.1459 91.2016 29.9905 90.3784 29.1644C91.7108 21.8478 90.6134 15.8852 87.1906 11.8944C83.8799 8.03442 78.546 6.18943 71.7663 6.55972C65.5026 6.90158 61.459 9.81156 60.178 10.8761C59.4767 10.9602 58.2821 11.2089 57.0731 11.9413C55.3973 12.9566 53.3999 15.0892 53.3999 19.4834C53.3999 23.3168 54.0066 26.5172 54.446 28.333C52.9734 29.0573 51.9882 30.6271 51.9882 32.4217V33.5153C51.9882 35.6912 53.4453 37.572 55.4528 37.9869C55.8035 38.0595 56.1591 38.0879 56.511 38.0718C57.0781 41.1041 58.4837 43.7957 60.4578 45.9212V49.2868C60.1037 49.3098 59.7569 49.4568 59.4882 49.7284L55.2991 53.9581L47.083 57.158C46.3723 57.4346 45.6933 57.7935 45.0653 58.2244C44.3761 58.6972 44.197 59.6446 44.6651 60.3405C44.957 60.7744 45.4316 61.008 45.9144 61.008C46.2063 61.008 46.5012 60.9225 46.761 60.7445C47.1989 60.4441 47.6727 60.1939 48.169 60.0005L55.794 57.0308L61.624 65.8609C62.3466 66.9555 63.505 67.6577 64.8015 67.7873C64.9458 67.8017 65.09 67.8089 65.2332 67.8089C65.9838 67.8089 66.7121 67.6096 67.3566 67.2413L66.1055 95.8959C66.0687 96.7364 66.7139 97.4479 67.5465 97.4849C67.5691 97.4859 67.5916 97.4863 67.6141 97.4863C68.4168 97.4863 69.0847 96.8475 69.1203 96.0299L70.2815 69.4324H73.4137L74.5749 96.0299C74.6105 96.8477 75.2784 97.4863 76.0811 97.4863C76.1036 97.4863 76.1261 97.4859 76.1487 97.4849C76.9811 97.4479 77.6263 96.7364 77.5897 95.8959L76.3386 67.2413C76.9831 67.6096 77.7112 67.8089 78.462 67.8089C78.6052 67.8089 78.7494 67.8017 78.8937 67.7873C80.1902 67.6577 81.3484 66.9555 82.0712 65.8609L87.9012 57.0308L95.5262 60.0005C96.5957 60.4169 97.5162 61.0813 98.24 61.9103L93.0234 67.1775C91.1386 69.0806 90.1008 71.6108 90.1008 74.3018V95.9631C90.1008 96.8045 90.7763 97.4865 91.6096 97.4865C92.4429 97.4865 93.1184 96.8045 93.1184 95.9631V74.3018C93.1184 72.4247 93.8424 70.6595 95.1571 69.3321L99.7354 64.7094C99.9192 65.3904 100.005 66.1065 99.9762 66.8385L98.8075 95.9014C98.7738 96.7421 99.4213 97.4512 100.254 97.4855C100.275 97.4863 100.295 97.4867 100.316 97.4867C101.121 97.4867 101.79 96.8447 101.823 96.0253L102.992 66.9616C103.163 62.6505 100.599 58.7109 96.6123 57.1582ZM59.4646 37.4438C59.1985 35.9811 57.857 34.9179 56.4092 35.0262C56.2947 35.0345 56.1768 35.0264 56.0582 35.002C55.4583 34.8781 55.0058 34.2389 55.0058 33.5155V32.4215C55.0058 31.7148 55.4735 31.0782 56.0704 30.9724C56.5742 30.883 57.0566 31.0697 57.3618 31.4717C57.6388 31.8363 58.0083 32.0971 58.4302 32.2255C59.0482 32.414 59.7296 32.3033 60.2534 31.9299C61.1969 31.2574 62.0294 30.4357 62.7276 29.4875C63.2249 28.8124 63.0857 27.8581 62.4172 27.3561C61.7483 26.854 60.8034 26.9944 60.3061 27.6696C59.9579 28.1425 59.5644 28.5717 59.1313 28.9515C58.6529 28.5383 58.094 28.2397 57.4951 28.0693C57.1075 26.5699 56.4175 23.3574 56.4175 19.483C56.4175 17.1497 57.1298 15.5103 58.5346 14.6104C59.6308 13.9082 60.7909 13.8802 60.7901 13.88C61.1758 13.88 61.5512 13.7266 61.8312 13.4591C61.868 13.4242 65.577 9.94868 71.9289 9.60194C77.7432 9.28506 82.2317 10.7671 84.9091 13.8887C87.6077 17.0351 88.5063 21.8657 87.5314 27.9117C87.1273 27.8973 86.6849 27.9282 86.2445 28.0023L84.8271 24.565C84.5378 23.8638 83.7802 23.4852 83.0523 23.6767C82.9121 23.7137 68.9787 27.2802 63.1364 19.936C62.6148 19.2801 61.6652 19.1753 61.0152 19.7022C60.3657 20.2291 60.2619 21.1878 60.7839 21.8439C66.7499 29.3437 78.5877 27.7122 82.5283 26.9166L83.6244 29.5745C84.0958 30.7171 85.3016 31.3411 86.4902 31.0581C86.978 30.9421 87.4441 30.9395 87.6191 30.9744C88.2293 31.0971 88.6894 31.7116 88.6894 32.4042V33.5153C88.6894 34.2389 88.2369 34.8779 87.637 35.0018C87.5185 35.0264 87.4001 35.0345 87.286 35.026C85.8384 34.9195 84.4969 35.9807 84.2306 37.4438C83.133 43.4774 77.9252 47.8568 71.8476 47.8568C65.77 47.8568 60.5622 43.4774 59.4646 37.4438ZM66.1578 64.3734C65.7752 64.7597 65.3304 64.7786 65.0991 64.7555C64.8679 64.7325 64.4352 64.6257 64.135 64.1711L58.2618 55.2758L60.6238 52.8909L69.6403 60.8571L66.1578 64.3734ZM70.4144 66.3857L70.5058 64.2919L71.8474 62.9373L73.189 64.2919L73.2803 66.3857H70.4144ZM71.8476 58.7584L63.4754 51.3616V48.4459C65.9096 50.0089 68.7896 50.9037 71.8476 50.9037C74.9056 50.9037 77.7858 50.0089 80.22 48.4459V51.3616L71.8476 58.7584ZM79.5606 64.1711C79.2602 64.6259 78.8275 64.7325 78.5965 64.7555C78.365 64.7786 77.9202 64.7597 77.5376 64.3732L74.0551 60.8569L83.0716 52.8907L85.4336 55.2756L79.5606 64.1711Z" fill="white"/>
<path d="M47.8478 65.1421L40.4805 61.8951L36.4532 57.8288C36.1834 57.5562 35.8366 57.4099 35.4836 57.3872V54.9905C38.9254 52.7067 41.4441 49.0747 42.2534 44.7467C42.6497 44.7645 43.0499 44.7261 43.4442 44.6321C45.3748 44.1708 46.776 42.3026 46.776 40.1901V39.0794C46.776 37.5361 46.0176 36.1477 44.8425 35.3332C45.1881 33.9507 45.3644 32.5364 45.3644 31.1127C45.3644 24.8011 41.9855 19.242 36.8924 16.0501C36.8381 10.7824 32.3851 6.5127 26.9166 6.5127C21.4482 6.5127 16.9952 10.7824 16.9409 16.0501C11.848 19.242 8.4691 24.8013 8.4691 31.1127C8.4691 32.5321 8.64412 33.9424 8.98772 35.321C7.81328 36.1315 7.05747 37.5264 7.05747 39.0961V40.1901C7.05747 42.3026 8.45864 44.1708 10.3893 44.6321C10.7836 44.7263 11.1835 44.7645 11.58 44.7467C12.3894 49.0747 14.9082 52.7067 18.3501 54.9905V57.3872C17.997 57.4099 17.6502 57.5562 17.3804 57.8288L13.3532 61.8951L5.98603 65.1421C2.23758 66.7943 -0.164425 70.6765 0.00878492 74.8026L0.899779 96.0278C0.934179 96.8464 1.60227 97.4869 2.40616 97.4869C2.42768 97.4869 2.44941 97.4865 2.47114 97.4854C3.30379 97.4499 3.94996 96.7396 3.91475 95.8988L3.02356 74.6734C2.96622 73.3057 3.31828 71.9787 3.98013 70.8365L7.94022 75.6348C9.19171 77.1511 9.88073 79.0731 9.88073 81.0467V95.9634C9.88073 96.8048 10.5563 97.4869 11.3895 97.4869C12.2228 97.4869 12.8983 96.8048 12.8983 95.9634V81.0467C12.8983 78.3617 11.9607 75.7471 10.2583 73.6844L6.04839 68.5833C6.40628 68.3342 6.78669 68.1136 7.19326 67.9345L13.6139 65.1045L18.1511 72.5408C18.5991 73.2751 19.3399 73.7729 20.1836 73.907C20.3353 73.9312 20.4874 73.9429 20.6388 73.9429C21.3287 73.9429 22.0006 73.6962 22.5333 73.2371L25.4084 70.76V95.9632C25.4084 96.8046 26.084 97.4867 26.9172 97.4867C27.7505 97.4867 28.426 96.8046 28.426 95.9632V70.7604L31.301 73.2375C31.8337 73.6966 32.5056 73.9434 33.1954 73.9434C33.3467 73.9434 33.499 73.9314 33.6507 73.9074C34.4944 73.7733 35.2351 73.2755 35.6831 72.5412L40.2204 65.1047L46.641 67.9347C47.0474 68.1138 47.428 68.3344 47.7859 68.5835L43.5759 73.6846C41.8736 75.7471 40.936 78.3619 40.936 81.0469V95.9636C40.936 96.805 41.6115 97.4871 42.4447 97.4871C43.278 97.4871 43.9535 96.805 43.9535 95.9636V81.0469C43.9535 79.0733 44.6428 77.1513 45.8941 75.635L49.8541 70.8368C50.516 71.9789 50.868 73.3059 50.8107 74.6736L49.9197 95.899C49.8845 96.7396 50.5307 97.4499 51.3633 97.4856C51.3851 97.4867 51.4066 97.4871 51.4283 97.4871C52.2322 97.4871 52.9003 96.8468 52.9347 96.028L53.8257 74.8028C53.9987 70.6767 51.5965 66.7943 47.8478 65.1421ZM26.917 9.55958C30.1269 9.55958 32.8351 11.6272 33.636 14.4287C31.5531 13.6349 29.2866 13.1984 26.917 13.1984C24.5474 13.1984 22.281 13.6349 20.1981 14.4287C20.9989 11.6272 23.7069 9.55958 26.917 9.55958ZM14.5339 44.1188C14.2679 42.6557 12.9243 41.5929 11.4786 41.701C11.3505 41.7101 11.2181 41.6992 11.0845 41.6671C10.5092 41.5296 10.0753 40.8946 10.0753 40.1901V39.0961C10.0753 38.3894 10.543 37.7528 11.1399 37.647C11.6436 37.5576 12.1258 37.7445 12.4308 38.1461C12.7078 38.5109 13.0774 38.7717 13.4996 38.9005C14.1174 39.089 14.7992 38.9783 15.3227 38.6047C16.2519 37.9426 17.0735 37.1353 17.7647 36.2058C18.265 35.5331 18.1304 34.578 17.4641 34.073C16.7976 33.5678 15.8519 33.7037 15.3516 34.3765C15.0094 34.8366 14.6242 35.2548 14.2005 35.6263C13.5549 35.0689 12.7633 34.72 11.9236 34.6141C11.6346 33.4667 11.4867 32.2932 11.4867 31.1129C11.4867 22.9151 18.4086 16.2455 26.917 16.2455C35.4252 16.2455 42.3472 22.9149 42.3472 31.1129C42.3472 32.291 42.2001 33.462 41.912 34.6074C41.5149 34.6393 41.1114 34.7049 40.7378 34.8028L39.6036 33.8611C39.0337 33.3879 38.3163 33.151 37.5902 33.1947C35.3725 33.3269 24.0147 33.6298 18.1875 26.5882C17.6532 25.9427 16.7019 25.8566 16.0624 26.3961C15.4228 26.9356 15.3377 27.8964 15.8721 28.5419C18.746 32.0147 22.9612 34.3631 28.4003 35.5217C32.5648 36.4088 36.2667 36.3226 37.7172 36.2391L39.4867 37.7084C39.9737 38.1128 40.6567 38.1699 41.2021 37.8493C41.458 37.7086 42.315 37.5741 42.689 37.6494C43.2991 37.7719 43.759 38.3866 43.759 39.0794V40.1901C43.759 40.8948 43.3251 41.5298 42.7497 41.6671C42.6163 41.699 42.4838 41.7105 42.3556 41.7008C40.9108 41.5948 39.5664 42.6557 39.3002 44.1186C38.2026 50.1524 32.9949 54.5318 26.9172 54.5318C20.8394 54.5318 15.6315 50.1524 14.5339 44.1188ZM20.6608 70.8453L16.1227 63.4076L18.4475 61.0603L24.6955 67.369L20.6608 70.8453ZM26.917 65.303L21.3679 59.7V56.5483C23.1002 57.2141 24.9721 57.5787 26.917 57.5787C28.862 57.5787 30.7339 57.2141 32.4662 56.5485V59.7L26.917 65.303ZM33.1733 70.8453L29.1386 67.369L35.3866 61.0603L37.7114 63.4076L33.1733 70.8453Z" fill="white"/>
<path d="M21.2708 80.187H17.0361C16.2029 80.187 15.5273 80.8691 15.5273 81.7105C15.5273 82.5518 16.2029 83.2339 17.0361 83.2339H21.2708C22.1041 83.2339 22.7796 82.5518 22.7796 81.7105C22.7796 80.8691 22.1041 80.187 21.2708 80.187Z" fill="white"/>
</g>
<defs>
<clipPath id="clip0">
<rect width="103" height="104" fill="white"/>
</clipPath>
</defs>
</svg>

<svg width="103" height="104" viewBox="0 0 103 104" fill="none" xmlns="http://www.w3.org/2000/svg"><g opacity=".5" clip-path="url(#clip0)" fill="#fff"><path d="M63.379 73.468h-5.647c-.833 0-1.508.682-1.508 1.523 0 .842.675 1.524 1.508 1.524h5.647c.833 0 1.509-.682 1.509-1.524 0-.841-.676-1.523-1.51-1.523z"/><path d="M96.612 57.158l-8.216-3.2-4.189-4.23a1.495 1.495 0 00-.97-.441v-3.366a15.766 15.766 0 003.947-7.849c.352.016.708-.013 1.059-.085 2.007-.415 3.464-2.296 3.464-4.471v-1.111a4.588 4.588 0 00-1.329-3.24c1.333-7.317.235-13.28-3.187-17.27-3.311-3.86-8.645-5.706-15.425-5.335-6.263.342-10.307 3.252-11.588 4.316a7.898 7.898 0 00-3.105 1.065c-1.676 1.016-3.673 3.148-3.673 7.542 0 3.834.607 7.034 1.046 8.85-1.473.724-2.458 2.294-2.458 4.089v1.093c0 2.176 1.457 4.057 3.465 4.472.35.072.706.1 1.058.085a15.768 15.768 0 003.947 7.85v3.365c-.354.023-.701.17-.97.441l-4.189 4.23-8.216 3.2a9.95 9.95 0 00-2.018 1.066 1.533 1.533 0 00-.4 2.117 1.503 1.503 0 002.096.404c.438-.3.912-.551 1.408-.744l7.625-2.97 5.83 8.83a4.31 4.31 0 003.61 1.948c.75 0 1.478-.2 2.123-.568l-1.251 28.655a1.518 1.518 0 001.508 1.59c.803 0 1.47-.639 1.506-1.456l1.161-26.598h3.133l1.16 26.598a1.515 1.515 0 001.575 1.455 1.518 1.518 0 001.44-1.59l-1.25-28.654a4.274 4.274 0 002.555.546 4.31 4.31 0 003.177-1.926l5.83-8.83L95.526 60a6.943 6.943 0 012.714 1.91l-5.217 5.266a10.059 10.059 0 00-2.922 7.125v21.661c0 .842.675 1.524 1.509 1.524.833 0 1.508-.682 1.508-1.524v-21.66c0-1.877.724-3.643 2.04-4.97l4.577-4.623c.184.681.27 1.397.241 2.13L98.808 95.9a1.518 1.518 0 001.508 1.586c.805 0 1.474-.642 1.507-1.462l1.169-29.063c.171-4.312-2.393-8.251-6.38-9.804zM59.465 37.444c-.267-1.463-1.608-2.526-3.056-2.418-.114.008-.232 0-.35-.024-.6-.124-1.053-.763-1.053-1.486v-1.094c0-.707.468-1.344 1.064-1.45.504-.089.987.098 1.292.5a2.11 2.11 0 001.068.753c.618.189 1.3.078 1.823-.295a11.001 11.001 0 002.475-2.442 1.533 1.533 0 00-.31-2.132 1.5 1.5 0 00-2.112.314 8.054 8.054 0 01-1.175 1.281 4.302 4.302 0 00-1.636-.882 35.36 35.36 0 01-1.078-8.586c0-2.333.713-3.973 2.118-4.873 1.096-.702 2.256-.73 2.255-.73.386 0 .761-.153 1.041-.42.037-.036 3.746-3.511 10.098-3.858 5.814-.317 10.303 1.165 12.98 4.287 2.699 3.146 3.597 7.977 2.622 14.023a6.483 6.483 0 00-1.287.09l-1.417-3.437a1.507 1.507 0 00-1.775-.888c-.14.037-14.073 3.603-19.916-3.741a1.499 1.499 0 00-2.12-.234 1.533 1.533 0 00-.232 2.142c5.966 7.5 17.804 5.868 21.744 5.073l1.096 2.657a2.475 2.475 0 002.866 1.484c.488-.116.954-.119 1.13-.084.61.123 1.07.738 1.07 1.43v1.111c0 .724-.453 1.363-1.053 1.487a1.267 1.267 0 01-.351.024c-1.448-.107-2.79.955-3.055 2.418-1.098 6.033-6.306 10.413-12.383 10.413-6.078 0-11.286-4.38-12.383-10.413zm6.693 26.93a1.288 1.288 0 01-1.059.382 1.293 1.293 0 01-.964-.585l-5.873-8.895 2.362-2.385 9.016 7.966-3.482 3.516zm4.256 2.012l.092-2.094 1.341-1.355 1.342 1.355.091 2.094h-2.866zm1.434-7.628l-8.373-7.396v-2.916a15.459 15.459 0 008.373 2.458 15.46 15.46 0 008.372-2.458v2.916l-8.372 7.396zm7.713 5.413c-.3.455-.734.561-.965.584a1.288 1.288 0 01-1.058-.382l-3.483-3.516 9.017-7.966 2.362 2.385-5.873 8.895z"/><path d="M47.848 65.142l-7.367-3.247-4.028-4.066a1.493 1.493 0 00-.97-.442V54.99a15.742 15.742 0 006.77-10.243 4.3 4.3 0 001.191-.115c1.93-.461 3.332-2.33 3.332-4.442v-1.11a4.555 4.555 0 00-1.934-3.747c.346-1.382.522-2.797.522-4.22 0-6.312-3.378-11.871-8.472-15.063-.054-5.268-4.507-9.537-9.975-9.537-5.469 0-9.922 4.27-9.976 9.537-5.093 3.192-8.472 8.751-8.472 15.063 0 1.42.175 2.83.519 4.208-1.175.81-1.93 2.205-1.93 3.775v1.094c0 2.113 1.4 3.98 3.331 4.442.395.094.795.133 1.191.115a15.742 15.742 0 006.77 10.243v2.397a1.5 1.5 0 00-.97.442l-4.027 4.066-7.367 3.247c-3.748 1.652-6.15 5.535-5.977 9.66l.89 21.226a1.516 1.516 0 001.572 1.457A1.518 1.518 0 003.915 95.9l-.891-21.226a7.068 7.068 0 01.956-3.837l3.96 4.799a8.52 8.52 0 011.94 5.412v14.916c0 .842.676 1.524 1.51 1.524.833 0 1.508-.682 1.508-1.524V81.047c0-2.685-.937-5.3-2.64-7.363l-4.21-5.1c.358-.25.739-.47 1.145-.65l6.42-2.83 4.538 7.437a2.916 2.916 0 002.488 1.402 2.9 2.9 0 001.894-.706l2.875-2.477v25.203c0 .842.676 1.524 1.51 1.524.832 0 1.508-.682 1.508-1.524V70.76l2.875 2.477a2.9 2.9 0 002.35.67 2.916 2.916 0 002.032-1.366l4.537-7.436 6.421 2.83c.406.179.787.4 1.145.648l-4.21 5.102a11.59 11.59 0 00-2.64 7.362v14.917c0 .841.675 1.523 1.509 1.523.833 0 1.508-.682 1.508-1.523V81.047a8.52 8.52 0 011.941-5.412l3.96-4.798a7.068 7.068 0 01.957 3.837l-.891 21.225a1.518 1.518 0 001.508 1.588c.804 0 1.472-.64 1.507-1.459l.89-21.225c.174-4.126-2.229-8.009-5.977-9.66zM26.917 9.56c3.21 0 5.918 2.067 6.719 4.869a18.835 18.835 0 00-6.719-1.23c-2.37 0-4.636.436-6.719 1.23.8-2.802 3.509-4.87 6.719-4.87zM14.534 44.119c-.266-1.463-1.61-2.526-3.055-2.418-.128.01-.26-.002-.394-.034-.576-.137-1.01-.772-1.01-1.477v-1.094c0-.707.468-1.343 1.065-1.449.504-.09.986.098 1.29.5.278.364.647.625 1.07.754.617.188 1.3.077 1.823-.296.929-.662 1.75-1.47 2.442-2.4.5-.672.365-1.627-.3-2.132a1.5 1.5 0 00-2.113.303c-.343.46-.728.879-1.152 1.25a4.304 4.304 0 00-2.276-1.012 14.322 14.322 0 01-.437-3.501c0-8.198 6.922-14.867 15.43-14.867s15.43 6.669 15.43 14.867a14.31 14.31 0 01-.435 3.494c-.397.032-.8.098-1.174.196l-1.134-.942a2.879 2.879 0 00-2.014-.666c-2.218.132-13.575.435-19.403-6.607a1.499 1.499 0 00-2.125-.192c-.64.54-.724 1.5-.19 2.146 2.874 3.473 7.09 5.821 12.528 6.98 4.165.887 7.867.8 9.317.717l1.77 1.47c.487.404 1.17.46 1.715.14.256-.14 1.113-.275 1.487-.2.61.123 1.07.738 1.07 1.43v1.111c0 .705-.434 1.34-1.01 1.477a1.28 1.28 0 01-.393.034c-1.445-.106-2.79.955-3.056 2.418-1.097 6.033-6.305 10.413-12.383 10.413-6.078 0-11.286-4.38-12.383-10.413zm6.127 26.726l-4.538-7.437 2.325-2.348 6.247 6.309-4.034 3.476zm6.256-5.542l-5.55-5.603v-3.152a15.44 15.44 0 0011.1 0V59.7l-5.55 5.603zm6.256 5.542L29.14 67.37l6.248-6.309 2.324 2.348-4.538 7.437z"/><path d="M21.27 80.187h-4.234c-.833 0-1.509.682-1.509 1.523 0 .842.676 1.524 1.51 1.524h4.234c.833 0 1.509-.682 1.509-1.523 0-.842-.676-1.524-1.51-1.524z"/></g><defs><clipPath id="clip0"><path fill="#fff" d="M0 0h103v104H0z"/></clipPath></defs></svg>
